X:1
T:Belsize, 66.66.88
T:Belsize, 66.66.88
T:James William Elliott, 1892
T:Public Domain Courtesy of the Cyber Hymnal™
C:James William Elliott, 1892
Z:Public Domain
Z:Courtesy of the Cyber Hymnal™
%%score ( 1 2 ) ( 3 4 )
L:1/8
Q:1/4=110
M:4/4
K:F
V:1 treble 
V:2 treble 
V:3 bass 
V:4 bass 
V:1
 [FA]2 | [Fc]2 F2 [FA]2 [EG]2 | F6 [DF]2 | [DA]2 D2 [DF]2 [^CE]2 | D6 [FA]2 | %5
 [FG]2 [EG]2 [Gc]2 [^G=B]2 | A6 [^Dc]2 | [Ec]2 [EG]2 [FA]2 [F=B]2 | [Ec]6 [Ed]2 | %9
 [Ed]2 [E^F]2 [EG]2 [Ed]2 | [_Ed]2 [Ec]2 [EA]2 [EF]2 | [DF]2 [DB]2 [DA]2 [DG]2 | [CF]4 [CE]4 | %13
 [CF]6 |] %14
V:2
 x2 | x2 F2 x4 | F6 x2 | x2 D2 x4 | D6 x2 | x8 | A6 x2 | x8 | x8 | x8 | x8 | x8 | x8 | x6 |] %14
V:3
 [F,C]2 | [A,,C]2 [B,,D]2 [C,C]2 [C,B,]2 | [F,A,]6 [B,,B,]2 | [F,,A,]2 [G,,B,]2 [A,,A,]2 [A,,G,]2 | %4
 [D,F,]6 [D,C]2 | [D,=B,]2 [E,C]2 [E,E]2 [E,D]2 | [F,C]6 [^F,A,]2 | G,2 [G,C]2 [G,C]2 [G,D]2 | %8
 [C,C]6 [C,B,]2 | [C,B,]2 [C,B,]2 [C,B,]2 [C,B,]2 | [F,A,]2 [F,A,]2 [F,C]2 [F,A,]2 | %11
 [B,,B,]2 [B,,F,]2 [B,,^F,]2 [B,,G,]2 | [C,A,]4 [C,B,]4 | [F,,A,]6 |] %14
V:4
 x2 | x8 | x8 | x8 | x8 | x8 | x8 | G,2 x6 | x8 | x8 | x8 | x8 | x8 | x6 |] %14

